X: 1
T: New Market Polka
T: Nell Fee's Polka
R: polka
S: Fiddle Hell Online 2021-11-4
Z: 2022 John Chambers <jc:trillian.mit.edu>
M: 4/4
L: 1/8
K: D
|: D2DB AFFB | AFDE FEEF | D2B2 AFFB | AF EF/E/ [1 D2 DA, :|[2 DABc ||
|: d2cd BAFA | d2cd B2Bc | d2cd BAFB | AFEF DABc :|
|: d2e2 f3e  | dBBc d3A  | B2AF B2AF | AFEF [1 DABc :|2 DA,B,C |]
